static/images/uploads/photos.svg

<?xml version="1.0" encoding="UTF-8"?>
<svg width="59px" height="52px" viewBox="0 0 59 52" version="1.1" xmlns="http://www.w3.org/2000/svg" xmlns:xlink="http://www.w3.org/1999/xlink">
    <!-- Generator: Sketch 50.2 (55047) - http://www.bohemiancoding.com/sketch -->
    <title>Group</title>
    <desc>Created with Sketch.</desc>
    <defs></defs>
    <g id="-" stroke="none" stroke-width="1" fill="none" fill-rule="evenodd">
        <g id="Homepage" transform="translate(-691.000000, -3431.000000)" fill="#413F47">
            <g id="highlights" transform="translate(141.000000, 3199.000000)">
                <g id="Group-38" transform="translate(439.000000, 232.000000)">
                    <g id="Group" transform="translate(111.000000, 0.000000)">
                        <path d="M30.5,20.4864865 C32.7163514,20.4864865 34.5135135,22.2836486 34.5135135,24.5 C34.5135135,26.7163514 32.7163514,28.5135135 30.5,28.5135135 C28.2836486,28.5135135 26.4864865,26.7163514 26.4864865,24.5 C26.4864865,22.2836486 28.2836486,20.4864865 30.5,20.4864865 Z M30.5,30 C33.5376351,30 36,27.5376351 36,24.5 C36,21.4623649 33.5376351,19 30.5,19 C27.4623649,19 25,21.4623649 25,24.5 C25,27.5376351 27.4623649,30 30.5,30 Z" id="Fill-1"></path>
                        <path d="M57.4014778,6.95774648 L53.1871921,44.0169014 L49.9901478,43.6507042 L49.9901478,11.8647887 L9.37315271,11.8647887 L10.5357143,1.61126761 L57.4014778,6.95774648 Z M1.45320197,50.5352113 L1.45320197,41.1605634 L15.9852217,30.4676056 L29.7179803,42.5521127 L48.6096059,31.4197183 L48.6096059,50.5352113 L1.45320197,50.5352113 Z M48.5369458,13.3295775 L48.5369458,29.7352113 L29.8633005,40.7943662 L16.0578818,28.5633803 L1.45320197,39.3295775 L1.45320197,13.3295775 L48.5369458,13.3295775 Z M7.91995074,11.8647887 L0,11.8647887 L0,52 L50.0628079,52 L50.0628079,45.115493 L54.4950739,45.628169 L59,5.71267606 L9.30049261,0 L7.91995074,11.8647887 Z" id="Fill-3"></path>
                    </g>
                </g>
            </g>
        </g>
    </g>
</svg>

<svg width="59" height="52" xmlns="http://www.w3.org/2000/svg"><g fill="#413F47" fill-rule="evenodd"><path d="M30.5 20.486a4.014 4.014 0 1 1 0 8.028 4.014 4.014 0 0 1 0-8.028zm0 9.514a5.5 5.5 0 1 0 0-11 5.5 5.5 0 0 0 0 11z"/><path d="M57.401 6.958l-4.214 37.059-3.197-.366V11.865H9.373L10.536 1.61 57.4 6.958zM1.453 50.535v-9.374l14.532-10.693 13.733 12.084L48.61 31.42v19.115H1.453zM48.537 13.33v16.405l-18.674 11.06-13.805-12.232L1.453 39.33v-26h47.084zM7.92 11.865H0V52h50.063v-6.885l4.432.513L59 5.713 9.3 0 7.92 11.865z"/></g></svg>
